X:12001
T:Kesh, The
R:Jig
B:Tuneworks Tunebook (https://www.tuneworks.co.uk/)
G:Tuneworks
Z:Jon Warbrick <jon.warbrick@googlemail.com>
M:6/8
L:1/8
K:G
|: "G"G3 GAB | "D"A3 ABd | "C"edd gdd | edB "D"dBA | 
"G"GAG GAB | "D"ABA ABd | "C"edd gdB | "D"ABA "G"G3 :|
|: "G"B2 B dBd | "C"ege dBA | "G"B2 B dBG | "D"ABA AGA | 
"G"BAB dBd | "C"ege "G"dBd | "C"gfg "D"aga | "G"bgg g3 :| 